findly-builder/apps/searchassist/src/assets/icons/green-check-circle.svg

<svg width="16" height="16" viewBox="0 0 16 16" fill="none" xmlns="http://www.w3.org/2000/svg">
<path d="M8.17843 1.50265C4.59639 1.40108 1.60421 4.23702 1.50265 7.81905C1.40108 11.4011 4.23702 14.3972 7.81905 14.4987C11.4011 14.5964 14.3972 11.7644 14.4987 8.17843C14.5107 7.71937 14.4729 7.27055 14.3916 6.83646C14.3204 6.45632 13.8618 6.33602 13.5804 6.60138C13.445 6.72904 13.389 6.91835 13.4205 7.10172C13.4793 7.44341 13.5078 7.7945 13.4987 8.15499C13.4128 11.1862 10.8776 13.5808 7.84639 13.4987C4.81514 13.4128 2.41671 10.8776 2.49874 7.84639C2.58468 4.81514 5.11983 2.41671 8.15108 2.49874C9.00397 2.5256 9.8049 2.74585 10.5167 3.11731C10.722 3.22446 10.9751 3.20036 11.1432 3.04103C11.3813 2.81533 11.3481 2.42597 11.0589 2.27097C10.1986 1.80984 9.22268 1.53147 8.17843 1.50265ZM13.3523 3.6921C13.157 3.49686 12.8405 3.49686 12.6452 3.6921L6.99874 9.33858L5.49874 7.84639L5.34964 7.69496C5.15628 7.49859 4.83996 7.49736 4.64509 7.69223C4.45032 7.887 4.45143 8.20312 4.64756 8.39651L4.79874 8.54559L6.64519 10.398C6.84036 10.5938 7.15738 10.594 7.35286 10.3985L13.3523 4.39913C13.5475 4.20389 13.5475 3.88734 13.3523 3.6921Z" fill="#135423"/>
</svg>

<svg width="16" height="16" fill="none" xmlns="http://www.w3.org/2000/svg"><path d="M8.178 1.503C4.596 1.4 1.604 4.237 1.503 7.819c-.102 3.582 2.734 6.578 6.316 6.68a6.512 6.512 0 0 0 6.68-6.32 6.377 6.377 0 0 0-.107-1.343c-.072-.38-.53-.5-.812-.235a.556.556 0 0 0-.16.5c.06.342.088.694.079 1.054a5.51 5.51 0 0 1-5.653 5.344A5.513 5.513 0 0 1 2.5 7.846 5.513 5.513 0 0 1 8.15 2.5a5.468 5.468 0 0 1 2.366.618.544.544 0 0 0 .626-.076c.238-.226.205-.615-.084-.77a6.455 6.455 0 0 0-2.88-.768Zm5.174 2.19a.5.5 0 0 0-.707 0L7 9.338 5.5 7.845l-.15-.151a.496.496 0 1 0-.701.702l.15.149 1.847 1.852a.5.5 0 0 0 .708 0l6-5.999a.5.5 0 0 0 0-.707Z" fill="#135423"/></svg>
